X:1
T:Title
%%score { 1 | 2 }
L:1/8
M:4/4
K:Eb
V:1 treble nm="Grand Piano"
V:2 bass 
V:1
 z4 z2[Q:1/4=96] G>F | E4 E2 [Ge]>[Ac] | [GB]4 G2 E>F | G2 G2 G>[FA] [GB]>[EG] | [DF]6 G>F | %5
 E4 E2 [Ge]>[Ac] | [GB]4 G2 E>F | G2 B2 F>A [EG]>[DF] |[M:3/4] E6 |[M:1/4] G>A | %10
[M:4/4] B2 E2 [CE]>[B,D] [CE]>[Ec] | B4 G2 G>A | B2 E2 E>D E>G | [DF]6 G>F | E4 E2 [Ge]>[Ac] | %15
 [GB]4 G2 E>F | G2 B2 F>A [EG]>[DF] |[M:3/4] E6 |] %18
V:2
 z4 z2 [E,B,E]>[E,A,E] | [E,G,]4 [E,G,]2 [E,B,]>[E,E] | [E,E]4 [E,B,E]2 [E,G,]>[E,A,E] | %3
 [E,B,E]2 [E,B,E]2 [E,B,E]>[E,B,] [E,B,]>[E,B,] | [B,,B,]6 [E,B,E]>[E,A,E] | %5
 [E,G,]4 [E,G,]2 [E,B,]>[E,E] | [E,E]4 [E,B,E]2 [E,G,]>[E,A,E] | %7
 [E,B,E]2[K:treble] [G,B,E]2 [B,D]>[B,F][K:bass] [B,,B,]>[B,,A,] |[M:3/4] [E,G,]6 | %9
[M:1/4] [E,B,E]>[E,A,E] |[M:4/4] [E,G,E]2 [E,G,B,]2 [A,,A,]>[A,,A,] [A,,A,]>[A,,A,] | %11
 [E,G,E]4 [E,B,E]2 [E,B,E]>[E,A,E] | [E,G,E]2 [E,G,B,]2 [E,G,B,]>[E,G,B,] [E,G,B,]>[E,B,E] | %13
 [B,,B,]6 [E,B,E]>[E,A,E] | [E,G,]4 [E,G,]2 [E,B,]>[E,E] | [E,E]4 [E,B,E]2 [E,G,]>[E,A,E] | %16
 [E,B,E]2[K:treble] [G,B,E]2 [B,D]>[B,F][K:bass] [B,,B,]>[B,,A,] |[M:3/4] [E,G,]6 |] %18

